X: 122
T: Haud 'er Guan
C: Bert Murray
R: reel
B: Bert Murray's "Bon Accord Collection" 1999 p.12
%
N: "Haud 'er guan" is N-E Scots for "keep her going".
Z: 2011 John Chambers <jc:trillian.mit.edu>
M: 2/4
L: 1/16
K: A
|: uE2 |\
E2(CE) cBAG | F2(DF) dcBA | A2G2 FEFG | AGAc E2(EF) |
E2(CE) cBAG | F2(DF) dcBA | ABAG FEFG | AEcB A2 :|
|: (ucd) |\
e2(ce) Acec | f2(df) Adfd | eAce aece | fedc B2(cd) |
e2(ce) Acea | f2(df) afdf | eagf edcB | AEcB A2 :|

%%sep 2 1 500

